assets/icon/icon.svg

<svg version="1.0" width="512px" height="512px" style="background-color: #444" xmlns="http://www.w3.org/2000/svg">
    <defs></defs>
    <g transform="translate(0,512) scale(1.4,-1.4)" fill="#FF5722FF" stroke="none">
        <path
            d="M 228.279 352.47 C 227.267 340.776 205.044 340.575 199 336 C 186 334 162 329 147 325 C 119 319 75 280 43 232 C 31 215 30 206 39 197 C 45 191 50 176 50 163 C 50 101 113 46 188 46 C 232 45 235 47 238 73 C 240 89 234 119 226 141 C 210 180 217 191 242 166 C 271 138 302 136 321 161 L 332.097 192.019 C 332.097 192.019 280.338 278.262 272.119 311.679 C 267.005 332.474 246.69 343.175 228.279 352.47 Z M 284 254 C 309 201 315 179 307 171 C 294 158 270 156 270 168 C 270 173 258 183 243 191 C 227 198 212 206 208 208 C 190 217 191 167 210 130 C 237 77 230 47 192 56 C 107 76 54 129 65 184 C 69 206 67 211 55 207 C 28 196 51 230 89 255 C 108 269 118 280 110 280 C 78 281 147 309 182 310 C 202 310 222 315 225 321 C 237 340 249 326 284 254 Z">
        </path>
    </g>
</svg>

<?xml version="1.0" standalone="no"?>
<!DOCTYPE svg PUBLIC "-//W3C//DTD SVG 20010904//EN" "http://www.w3.org/TR/2001/REC-SVG-20010904/DTD/svg10.dtd">
<svg version="1.0" xmlns="http://www.w3.org/2000/svg" width="512px" height="512px" style="background-color: #444">
    viewBox="0 0 512.000000 512.000000" preserveAspectRatio="xMidYMid meet">
    <metadata>
        Created by potrace 1.10, written by Peter Selinger 2001-2011
    </metadata>
    <g transform="translate(0,512) scale(1.4,-1.4)" fill="#FF5722FF" stroke="none">
        <path d="M83 339 c-39 -25 -73 -77 -73 -110 1 -21 2 -21 15 8 15 36 69 93 88
93 7 0 21 7 31 15 19 15 19 15 -5 15 -13 0 -38 -10 -56 -21z" />
        <path d="M209 351 c12 -8 10 -11 -10 -15 -13 -2 -37 -7 -52 -11 -28 -6 -72
-45 -104 -93 -12 -17 -13 -26 -4 -35 6 -6 11 -21 11 -34 0 -62 63 -117 138
-117 44 -1 47 1 50 27 2 16 -4 46 -12 68 -16 39 -9 50 16 25 29 -28 60 -30 79
-5 l19 24 0 -23 c0 -54 -67 -127 -126 -138 -40 -7 -43 -14 -5 -14 44 0 85 23
118 67 25 32 28 45 28 109 0 58 -4 78 -21 101 -29 39 -82 73 -113 73 -20 0
-22 -3 -12 -9z m75 -97 c25 -53 31 -75 23 -83 -13 -13 -37 -15 -37 -3 0 5 -12
15 -27 23 -16 7 -31 15 -35 17 -18 9 -17 -41 2 -78 27 -53 20 -83 -18 -74 -85
20 -138 73 -127 128 4 22 2 27 -10 23 -27 -11 -4 23 34 48 19 14 29 25 21 25
-32 1 37 29 72 30 20 0 40 5 43 11 12 19 24 5 59 -67z m52 -30 c5 -39 5 -38
-25 21 -37 73 -38 76 -6 44 16 -15 28 -41 31 -65z" />
        <path d="M10 141 c-1 -57 78 -132 136 -130 l29 1 -30 10 c-49 17 -91 54 -113
100 -17 35 -21 39 -22 19z" />
    </g>
</svg>
